X:46
T:Parker's Whim. JJo8.046
B:J.Johnson Choice Collection Vol 8 1758
Z:vmp.Simon Wilson 2013 www.village-music-project.org.uk
M:C|
L:1/8
Q:1/2=80
K:F
|:c|(A/B/c) (c/d/e)f2(fc)|(d/e/f) (cA) BG-Ga|(gf)(ed) ec-cd|(e/f/g) (G=B)c3:|
|:c|(A/B/c) (_ec) dB-Bd|(gf)(ed) ec-ca|(bg)(ec)B2(AG)|(A/B/c) (BG)F3:|
